**kern
*staff3
*I"ピアノ
=1-
*clefF4
*k[b-e-a-]
*M6/8
4EE-/ 4E-/
8r
4BBB-/ 4BB-/
8r
=2
4FF/ 4F/
8r
4BBB-/ 4BB-/
8r
=3
4EE-/ 4E-/
8r
4EEE-/ 4EE-/
8r
=4
!!linebreak:original
4FFF/
8r
4FF/
8r
=5
4BBB-/ 4BB-/
8r
4FFF/ 4FF/
8r
=6
!!pagebreak:original
4CC/ 4C/
8r
4FFF/ 4FF/
8r
=7
4.DD/
4.FF/
=8
4.EE-/
4.AA-/
=9
!!linebreak:original
4.GG/
4.BB-/
=10
!!pagebreak:original
4.AA-/
4.D-\
=11
4.C/
4.F\
=12
4.BB-/
4.BBB-/
=13
4EE-/ 4E-/
8r
4BB-\ 4B-\
8r
=14
!!linebreak:original
4BB-\ 4B-\
8r
4BB-\ 4B-\
8r
=15
4.E-\
4.EE-/
=16
4.BB-/
4.BBB-/
=17
4.EE-/
4.EEE-/
=18
!!pagebreak:original
4.FFF/
4.FF/
=19
8BBB-/ 8BB-/
4r
8FFF/ 8FF/
4r
=20
8CC/ 8C/
4r
8FFF/ 8FF/
4r
=21
!!linebreak:original
4.DD/
4.FF/
=22
!!pagebreak:original
4.EE-/
4.AA-/
=23
4.GG/
4.BB-/
=24
4.AA-/
4.D-\
=25
!!linebreak:original
4.C/
4.F\
=26
!!pagebreak:original
4.BB-/
4.BBB-/
=27
4EE-/
8r
4BB-\ 4B-\
8r
=28
4BB-\ 4B-\
8r
4BB-\ 4B-\
8r
=29
4.E-\
4.EE-/
=30
!!linebreak:original
4.AAn/
4.AA-/
=31
4.GG/
4.GG-/
=32
8FF/
4r
8FFF/
4r
=33
!!pagebreak:original
4BBB-/ 4BB-/
8r
4FFF/ 4FF/
8r
=34
!!linebreak:original
4CC/ 4C/
8r
4FFF/ 4FF/
8r
=35
(4.DD/
4.EE-/
=36
4.FF/
4.GG-/
=37
!!pagebreak:original
4.GG/
4.AA-/
=38
!!linebreak:original
4.BB-/
4.BBn/
=39
4.F\
4.FF/
=40
4.F\
4.FF/
=41
!!pagebreak:original
4.BB-/)
4.BB-/
=42
!!linebreak:original
4.BB-/
4.AAn/
=43
4.AA-/
4.GG/
=44
4.BB-/
4.AA-/
=45
!!pagebreak:original
(4.AAn/
4.BB-/
=46
!!linebreak:original
4.C/)
8FF/ 8F/
4r
=47
8BBB-/ 8BB-/
4r
8BBB-/ 8BB-/
4r
=48
8EE-/
4r
4.BB-/
=49
4.BB-/
4.BB-/
=50
!!pagebreak:original
4.EE-/
4.r;
==
*-
